X:1
T:James Gibb editions
T:Beneath the Cross of Jesus - Barnby
%%score [ ( 1 2 ) ( 3 4 ) ]
L:1/8
Q:1/4=200
M:4/4
K:Ab
V:1 treble nm="Midi_74"
V:2 treble 
V:3 bass nm="Midi_74"
V:4 bass 
V:1
"^Beneath the Cross of Jesus""^Elizabeth Cecilia Clephane\n(1830-69)""^Crucis umbra (76. 86. 86. 86)"!p!"^Joseph Barnby\n(1838-96)" E2 | %1
 A2 A2 G2 G2 | F4 F2 || F2 | F2 c2 B2 !courtesy!_A2 | G6 || G2 | A2!<(! B2 c2 =d2!<)! | %8
!>(! e2 B2 A2!>)! || G2 | F2 A2 A2 =D2 | E6 ||[M:4/4]!p! E2 | B2 A2 A2 G2 | F3 E E2 || E2 | %16
 E2 c2 B2 A2 | A4 || d4 | c2 B2 A2 e2 | d2 c2 B2 ||"^dim." A2 | A2 B2 F2 G2 | A6 || A4 A4 |] %25
V:2
 E2 | C2 C2 C2 C2 | C4 C2 || E2 | D2 E2 F2 F2 | E6 || E2 | E2 E2 E2 F2 | G2 E2 =E2 || =E2 | %10
 F2 C2 =D2 B,2 | B,6 ||[M:4/4] E2 | !courtesy!_D2 D2 D2 D2 | D3 D D2 || D2 | C2 C2 E2 E2 | D4 || %18
 A4 | A2 E2 A2 A2 | A2 A2 A2 || F2 | E2 E2 D2 D2 | C6 || D4 C4 |] %25
V:3
!p! E,2 | E,2 E,2 E,2 E,2 | F,4 F,2 || C2 | F,2 =A,2 B,2 D2 | B,6 || B,2 | E2 D2 C2 _C2 | %8
 B,2 G,2 C2 || C2 | C2 C2 C2 (B,A,) | G,6 || %12
[M:4/4]"^1. Beneath the cross of Jesus\nI fain would take my stand,\nThe shadow of a mighty rock\nWithin a weary land;\nA home within the wilderness,\nA rest upon the way,\nFrom the burning of the noontide heat,\nAnd the burden of the day.\n\n2. O safe and happy shelter,\nO refuge tried and sweet,\nO trysting place where Heaven’s love\nAnd Heaven’s justice meet!\nAs to the holy patriarch\nThat wondrous dream was giv’n,\nSo seems my Saviour’s cross to me,\nA ladder up to Heav’n.\n\n3. There lies beneath its shadow\nBut on the further side\nThe darkness of an awful grave\nThat gapes both deep and wide;\nAnd there between us stands the cross\nTwo arms outstretched to save\nA watchman set to guard the way\nFrom that eternal grave." E,2 | %13
 G,2 A,2 A,2 B,2 | A,3 G, G,2 || G,2 | A,2 C2 C2 C2 |"^cresc." D4 || D4 | %19
"^4. Upon that cross of Jesus\nMine eye at times can see\nThe very dying form of One\nWho suffered there for me;\nAnd from my stricken heart with tears\nTwo wonders I confess;\nThe wonders of redeeming love\nAnd my unworthiness.\n\n5. I take, O cross, thy shadow\nFor my abiding place;\nI ask no other sunshine\nThan the sunshine of His face;\nContent to let the world go by,\nTo know no gain or loss,\nMy sinful self my only shame,\nMy glory all the cross." E2 G,2 A,2 C2 | %20
 D2 E2 F2 || B,2 | C2 D2 A,2 B,2 | A,6 || F,4 E,4 |] %25
V:4
 E,2 | A,,2 A,,2 A,,2 A,,2 | A,,4 A,,2 || =A,,2 | B,,2 C,2 D,2 B,,2 | E,6 || D,2 | %7
 C,2 B,,2 A,,2 A,,2 | B,,2 B,,2 C,2 || B,2 | A,2 F,2 B,,2 B,,2 | E,6 ||[M:4/4] E,2 | %13
 E,2 E,2 E,2 E,2 | E,3 E, E,2 || E,2 | A,2 A,,2 _G,2 G,2 | F,4 || _F,4 | E,2 D,2 C,2 _G,2 | %20
 F,2 E,2 =D,2 || =D,2 | E,2 E,2 E,2 E,2 | A,,6 || D,4 A,,4 |] %25

